X: 33656
T: Rambling Jock
R: reel
M: 4/4
K: Cmajor
GGGE GGGA|c2GA cdeA|GGGE GAGD|EGcd cAAA|
GGGE GGGA|c2GA cdef|edcA GGGD|EGcd cAAA||
g2ed ccce|gged eaaa|gged cccE|Gced cAAA|
g2ed ccce|gged eaaa|gged cGcd|e3f edcG||
AAGc AAGE|GAcd egdc|AAGc AAGE|Gced cAAG|
AAGc AAGE|GAcd egdc|AAGc AGcd|e3f edcA||

